X: 10
T:Banshee, The
M:4/4
L:1/8
R:reel
Z:Rachel Marsh, 25/4/2000
K:G
~G3 D EDBA | GFGB d2 Bd | eged BAGA | BAGE EDBA |
~G3 D EDBD | GFGB d2 Bd | eged BAGA | BAGE ED D2 :||
eaag efge | dBBA B3 d | eB ~B2 gBfB | eBBA B3 d |
eaag efge | dBBA B3 d | eged BAGA | BAGE ED D2 :||
<end>
<start>
